X: 25486
T: Marcos Llope
R: jig
M: 6/8
K: Dmajor
A|:DFG FGd|dAF D2 d|cAE FGF|DE/F/G AFD|
DFG FGd|dAF D2 A|G2 g fdA|1 e2 f dAF:|2 e2 f z dc||
B2B cdf-|fdA d2 f|eAd efa|f2 e zdc|
B2B cdf-|fdA d2B|AB/c/d gfd|1 d3-d dc:|2 d3-d2 A||

